!!!OTL: Es ist ein Schnee gefallen (3-61), S. 175
!!!id: P1034
**kern
*clefG2
*k[f#]
*G:
{4d
=1
4g
4f#
4g
8b
8a
=2
4g
4f#
4g}
=3
{4dd
=4
8ee
8ee
4dd
4cc
8b
8g
=5
2a}
4r
=6
{4g
=7
4a
4dd
8dd
8cc
8b
8a
=8
4b
4a
4g}
=9
{4g
=10
4a
4dd
8dd
8cc
8b
8a
=11
8g
8f#
4e
4d}
=12
{4d
=13
4g
4g
8a
8b
8a
8f#
=14
2g}
4r
==
*-
!!!minrhy: 8
!!!meters: 4/4 ]  ZZ[5
!!!cut: Es ist ein Schnee gefallen (3-61), S. 175
!!!reg: Lothringen
!!!trd: PINCK, Louis: Verklingende Weisen, Bd3, Metz 1933
!!!rhy1: X_  X_X_X_XX  X_X_X_
!!!rhy2: X_  XXX_X_XX  X__0_
!!!key: P1034  08  G 4/4 ]  ZZ[5
!!!mod: HEPTATONIK IONISCH]  AMBITUS[9
!!!kad: 121-51
!!!akz: 1111_642_2531_251-5_121_
!!!fot: 'a__b__c__d__e__
!!!for: 'a__b__c__d__cw_
!!!fok: '^a_\__^__^d_^a_
!! PHRAS[AUFTAKTIG]
!!!fkt: Treueversprechen
!! LOTH VKL
!! PR[9] 2K[7] 2G[25] 3K[13] 3G[0] 4A[4] 4Ü[0] 5A[0] 6K[0] 6G[0]
!! 7K[0] 7G[0] 8A[0] MEHR[0] SI[49] ABS[55] SR[33] SP[16]
!! ST[14] 2k[9] 2g[20] 3k[11] 3g[0] 4d[0] 4ü[0] 5d[0] 6k[0] 6g[2]
!! 7k[0] 7g[0] 8d[0] mehr[0] si[42] dm[+7] sr[29] sp[13]
!! 1F[32] 2F[51] 3F[5] 4F[0] LF[0] 2P[12] 3P[0] 4P[0] TRI[0] DF[4] AB[59]
!! TF[0] U3K[0] U3[0] U4[0] U4Ü[0] U5[4] U6K[0] U6[0] U7K[0] U7[0]
!! N1[4] N2K[0] N2[11] N3K[0] N3[25] N4[18] N4Ü[0] N5[30] N6K[0] N6[9]
!!!n7k: 0] N7[0] O1[0] O2K[0] O2[0] O3K[0] O3[0] HÖ[0
